X: 10242
T: WELCOME TO YOUR FEET AGAIN
%R: strathspey
B: "Edinburgh Repository of Music" v.1 p.24 #2
F: http://digital.nls.uk/special-collections-of-printed-music/pageturner.cfm?id=87776133
Z: 2015 John Chambers <jc:trillian.mit.edu>
M: C
L: 1/8
K: F
|:\
F>Acd f>A G2 | F>Acd f>c df |\
B>g A>f g>A G>A | F>Ac>d f>cd<f :|
|:\
c'>f c'>d' c'>a g>a | c'>f c'>d' c'>d' c'>a |\
b>c' d'/c'/b/a/ g>f ga | f>A d>c f>c d<f :|

%%sep 2 1 500
%%sep 1 1 500

